default-svg/e012-clipboard-alert.svg

<svg xmlns="http://www.w3.org/2000/svg" viewBox="0 0 24 24"><path d="M12 5a1 1 0 0 1-1-1 1 1 0 0 1 1-1 1 1 0 0 1 1 1 1 1 0 0 1-1 1m1 9h-2V8h2m0 10h-2v-2h2m6-13h-4.18A3.01 3.01 0 0 0 12 1c-1.3 0-2.4.84-2.82 2H5a2 2 0 0 0-2 2v14a2 2 0 0 0 2 2h14a2 2 0 0 0 2-2V5a2 2 0 0 0-2-2Z"/></svg>

<svg xmlns="http://www.w3.org/2000/svg" viewBox="0 0 24 24"><path d="M12 5A1 1 0 0 1 11 4A1 1 0 0 1 12 3A1 1 0 0 1 13 4A1 1 0 0 1 12 5ZM13 14H11V8H13ZM13 18H11V16H13ZM19 3H14.82A3.01 3.01 0 0 0 12 1C10.7 1 9.6 1.84 9.18 3H5A2 2 0 0 0 3 5V19A2 2 0 0 0 5 21H19A2 2 0 0 0 21 19V5A2 2 0 0 0 19 3Z"/></svg>
